X: 43552
T: Youghal Harbour
R: hornpipe
M: 4/4
K: Gmajor
ef|gfed B2 AB|dB (3ABA GEDE|G2 GA Bdef|
gfed B2 AB|dB (3ABA G2 G2|G4G2:|:GA|
Bdef g2 fg|agfg e3 f|fedB dBAB|d2 d2 d2 ef|
g2 ga gfed|Bd (3BAG EDB,D|G2 GA B{dBA}Bd|
edef g2 ef|gfed B2 AB|dB (3ABA GEDE|G2 GA Bdef|
gfed B2 AB|dB (3ABA G2 G2|G4G2:|

